X: 771
T: Fâriğ Olmam Meşreb-i Rindâneden
C: Yesârî Âsım Arsoy
O: Turkey
F: http://compmusic.upf.edu/node/140
N: huseyni--sarki--agiraksak--farig_olmam--yesari_asim_arsoy
N: makam= huseyni
N: form= sarki
N: usul= agiraksak = 9/4
M: 9/4
L: 1/16
K: C _2/4B ^3/4f  
Q: 1/4=66
%%MIDI tuningsystem comma53
baga g2c'2 b3c' a3b g3a f3g e3=f d2ef edc2  | 
w:  ARANAĞME  | 
dcBc defg ag=fe dcBd cBAc BAGB A4 de^3/4fg a4  | 
w:   | 
baga g2c'2 b3c' a3b g3a f3g e3=f d2ef edc2  | 
w:  ARANAĞME  | 
dcBc defg ag=fe dcBd cBAc BAGB A6d2 c2d2  | 
w:   | 
e3=f edcB A2A4e2 e6a2 e6ed (3ddccd  | \
w:  *  *  *  *  *  *  *  Fâ riğ_ ol *  mam   | 
e4 d2cd e2g2 f2ge e6d2 d2{=f}ed c2dc BABc  | 
w:  *  SAZ *  *  *  meş *  reb_ *  i  *  rin  | 
decB BAA4gf efga =b2ag ^2/4f2fe e6d2 d2cd  | 
w:  *  *  *  *  *  *  *  dâ *  *  *  *  *  *  *  *  *  ne *  den   *  SAZ  | 
e4 ABcd e2e4a2 a2g2 =f2e2 e2ed d2e2 d2e2  | \
w:  *  *  *  *  *  *  Yüz  çe vir *  *  *  mem   | 
d2e2 g3/2e/ef g2g^1/4f e2ed d2c4(3BAB d8 c4  | 
w:  *  *  SAZ *  *  *  *  nâ *  *  fi *  le  *  *  *  *  pey  | 
c3/2B/Ac B3/2A/B2 z2BA G2AB c3B dBBA A6d2 c2d2  | 
w:  *  *  *  *  *  *  *  ma *  *  *  *  *  *  *  *  ne den   SAZ  | 
e4 ABcd e2e4a2 a2g2 =f2e2 e2ed d2e2 d2e2  | \
w:  *  *  *  *  *  *  Yüz  çe vir *  *  *  mem   | 
d2e2 g3/2e/ef g2g^1/4f e2ed d2c4(3BAB d8 c4  | 
w:  *  *  SAZ *  *  *  *  nâ *  *  fi *  le  *  *  *  *  pey  | 
c3/2B/Ac B3/2A/B2 z2BA G2AB c3B dBBA A6g2 f2a2  | 
w:  *  *  *  *  *  *  *  ma *  *  *  *  *  *  *  *  ne *  den   SAZ  | 
g3/2f/ga g^fef g2f4g2 g8 g^3/4fed edef gafa  | 
w:  *  *  *  *  *  *  *  *  *  Bez me dik çe   | 
g8 z2g4a2 a8 a2c'2 b2a2 g2^fa  | e8 d2^3/4cd e^fga =b2ag ^3/4f2fe e6d2 d2=cd  | 
w:  *  ha let_ i  mes  |  *  *  ta *  *  *  *  *  *  *  *  *  *  ne den   SAZ  | 
e4 ABcd e2e4a2 a2g2 =f2e2 e2ed d2e2 d2e2  | \
w:  *  *  *  *  *  *  Yüz  çe vir *  *  *  mem   | 
d2e2 g3/2e/ef g2g^1/4f e2ed d2c4(3BAB d8 c4  | 
w:  *  *  SAZ *  *  *  *  nâ *  *  fi *  le  *  *  *  *  pey  | 
c3/2B/Ac B3/2A/B2 z2BA G2AB c3B dBBA A6d2 c2d2  | 
w:  *  *  *  *  *  *  *  ma *  *  *  *  *  *  *  *  ne den   SAZ  | 
e4 ABcd e2e4a2 a2g2 =f2e2 e2ed d2e2 d2e2  | \
w:  *  *  *  *  *  *  Yüz  çe vir *  *  *  mem   | 
d2e2 g3/2e/ef g2g^1/4f e2ed d2c4(3BAB d8 c4  | 
w:  *  *  SAZ *  *  *  *  nâ *  *  fi *  le  *  *  *  *  pey  | 
c3/2B/Ac B3/2A/B2 z2BA G2AB c3B dBBA A6|
w:  *  *  *  *  *  *  *  ma *  *  *  *  *  *  *  *  ne *  den    | 


